src/assets/IconGavelRed.svg

<svg width="69" height="49" viewBox="0 0 69 49" fill="none" xmlns="http://www.w3.org/2000/svg">
<path fill-rule="evenodd" clip-rule="evenodd" d="M17.0801 42.4091C17.9707 43.4347 18.5919 44.6242 18.8909 45.8632C19.0549 46.5486 18.7153 47.2361 18.1098 47.5416L18.1121 47.546C14.4978 49.3762 9.813 48.1998 7.15885 45.1437C6.26826 44.1182 5.64705 42.9288 5.34807 41.6897C5.18403 41.0043 5.52369 40.3167 6.1292 40.0112C9.76084 38.1331 14.4701 39.4037 17.0801 42.4091ZM34.5717 29.9805C34.5739 32.3044 34.5771 35.1638 34.5717 29.9805V29.9805ZM16.6469 1.60485C18.6044 5.11166 17.6655 9.74763 14.8144 12.521C13.8359 13.4728 12.6853 14.162 11.4733 14.5294C10.7481 14.749 9.98631 14.3919 9.67729 13.7216C9.07745 12.6469 8.72477 11.4033 8.656 10.0968C8.44458 6.07616 10.9719 1.9723 14.8508 0.797166C15.576 0.5774 16.3379 0.934507 16.6469 1.60485ZM14.6138 5.33015C14.593 4.93859 14.5338 4.55899 14.4386 4.19783C12.245 5.57281 11.0907 8.50127 11.7463 10.99C13.6142 9.81935 14.7299 7.51316 14.6138 5.33015ZM5.77657 12.1491C5.14141 11.7965 4.32529 11.9455 3.86163 12.5326C1.34789 15.7177 1.63131 20.509 4.11772 23.6677C4.93203 24.7023 5.94446 25.5183 7.06177 26.049C7.69694 26.4017 8.51305 26.2527 8.97672 25.6656C12.3265 21.4214 10.6638 14.4706 5.77657 12.1491ZM6.28378 16.3886C7.66309 18.1078 8.08404 20.6126 7.22525 22.6338C5.21975 20.9761 4.46633 17.9361 5.47401 15.5644C5.76519 15.8051 6.03715 16.0812 6.28378 16.3886ZM2.01378 26.1001C1.30409 26.0762 0.654881 26.5565 0.493361 27.2722C-0.401954 31.2384 1.93403 35.4745 5.54776 37.268C6.74373 37.8614 8.03166 38.1653 9.29357 38.158C10.0033 38.1819 10.6525 37.7016 10.814 36.9859C12.0086 31.6942 7.49255 26.0684 2.01378 26.1001ZM4.43141 29.6973C6.39505 30.6816 7.83594 32.7704 7.94852 34.9707C5.45954 34.3026 3.49291 31.8739 3.36046 29.2874C3.72066 29.3841 4.07996 29.5212 4.43141 29.6973ZM9.93777 42.0402C9.54205 42.0381 9.15466 42.0763 8.78271 42.1529C10.0445 44.4324 12.9189 45.7773 15.4562 45.2544C14.3808 43.3119 12.1367 42.0521 9.93777 42.0402Z" fill="url(#paint0_linear)" fill-opacity="0.4"/>
<path fill-rule="evenodd" clip-rule="evenodd" d="M52.0693 42.4091C51.1787 43.4347 50.5575 44.6242 50.2585 45.8632C50.0945 46.5486 50.4341 47.2361 51.0396 47.5416L51.0373 47.546C54.6517 49.3762 59.3364 48.1998 61.9906 45.1437C62.8811 44.1182 63.5024 42.9288 63.8013 41.6897C63.9654 41.0043 63.6257 40.3167 63.0202 40.0112C59.3886 38.1331 54.6793 39.4037 52.0693 42.4091ZM34.5777 29.9805C34.5755 32.3044 34.5723 35.1638 34.5777 29.9805V29.9805ZM52.5025 1.60485C50.5451 5.11166 51.484 9.74763 54.335 12.521C55.3135 13.4728 56.4641 14.162 57.6761 14.5294C58.4013 14.749 59.1631 14.3919 59.4721 13.7216C60.072 12.6469 60.4246 11.4033 60.4934 10.0968C60.7048 6.07616 58.1776 1.9723 54.2986 0.797166C53.5734 0.5774 52.8115 0.934507 52.5025 1.60485ZM54.5356 5.33015C54.5564 4.93859 54.6157 4.55899 54.7108 4.19783C56.9045 5.57281 58.0587 8.50127 57.4031 10.99C55.5352 9.81935 54.4195 7.51316 54.5356 5.33015ZM63.3728 12.1491C64.008 11.7965 64.8241 11.9455 65.2878 12.5326C67.8015 15.7177 67.5181 20.509 65.0317 23.6677C64.2174 24.7023 63.205 25.5183 62.0876 26.049C61.4525 26.4017 60.6364 26.2527 60.1727 25.6656C56.8229 21.4214 58.4856 14.4706 63.3728 12.1491ZM62.8656 16.3886C61.4863 18.1078 61.0654 20.6126 61.9242 22.6338C63.9297 20.9761 64.6831 17.9361 63.6754 15.5644C63.3842 15.8051 63.1123 16.0812 62.8656 16.3886ZM67.1356 26.1001C67.8453 26.0762 68.4945 26.5565 68.6561 27.2722C69.5514 31.2384 67.2154 35.4745 63.6017 37.268C62.4057 37.8614 61.1178 38.1653 59.8558 38.158C59.1461 38.1819 58.4969 37.7016 58.3354 36.9859C57.1409 31.6942 61.6569 26.0684 67.1356 26.1001ZM64.718 29.6973C62.7544 30.6816 61.3135 32.7704 61.2009 34.9707C63.6899 34.3026 65.6565 31.8739 65.789 29.2874C65.4288 29.3841 65.0695 29.5212 64.718 29.6973ZM59.2116 42.0402C59.6074 42.0381 59.9948 42.0763 60.3667 42.1529C59.1049 44.4324 56.2305 45.7773 53.6932 45.2544C54.7686 43.3119 57.0127 42.0521 59.2116 42.0402Z" fill="url(#paint1_linear)" fill-opacity="0.4"/>
<path opacity="0.7" fill-rule="evenodd" clip-rule="evenodd" d="M40.2493 6.54047L30.7983 14.8383C30.0472 15.3816 28.9906 15.2778 28.3649 14.5716L27.7358 13.862C27.0712 13.1119 27.144 11.9671 27.8985 11.3046L37.0886 3.23575C37.843 2.57335 38.9934 2.64427 39.6582 3.3943L40.2873 4.10398C40.9129 4.81009 40.8848 5.86644 40.2493 6.54047Z" fill="url(#paint2_linear)"/>
<path fill-rule="evenodd" clip-rule="evenodd" d="M15.8704 36.5792L15.8526 36.4195L15.842 36.2676C15.8325 36.1642 15.8324 36.0709 15.8302 35.9753C15.8213 35.5932 15.8569 35.2612 15.9164 34.9566C16.0391 34.3509 16.272 33.87 16.591 33.4868C16.6702 33.3905 16.7575 33.3031 16.8439 33.2147L17.1028 32.9494C17.2744 32.7714 17.4508 32.5989 17.6256 32.4246C17.7998 32.2495 17.9771 32.0779 18.1547 31.9066C18.3314 31.7344 18.5092 31.5636 18.6891 31.395C19.0462 31.0549 19.4086 30.7209 19.7722 30.3877L20.3202 29.8912L20.8724 29.3993C21.242 29.0735 21.6125 28.7484 21.9864 28.4272C22.3595 28.1051 22.7346 27.7852 23.1128 27.4689L24.2485 26.5212L25.3947 25.5851L26.5495 24.659L27.7121 23.7416L28.8823 22.8327L30.0601 21.9326C30.4546 21.6346 30.8486 21.3362 31.2467 21.0421C31.6435 20.7471 32.0398 20.451 32.4406 20.1602L32.9336 20.7182L34.7748 19.4674L31.9969 16.3238L41.4543 7.99625L48.286 15.7271L38.8285 24.0547L36.0506 20.9111L34.5774 22.5786L35.0706 23.1367C34.7313 23.4974 34.3876 23.8526 34.0448 24.209C33.7031 24.5665 33.3573 24.9195 33.0119 25.273L31.9702 26.3272L30.9206 27.3727L29.8638 28.4098L28.799 29.4378L27.7257 30.4563L26.6421 31.4629C26.2803 31.798 25.9157 32.1296 25.5487 32.459C25.1828 32.7893 24.8135 33.1154 24.4435 33.4412L23.8858 33.9264L23.324 34.407C22.9473 34.7254 22.5702 35.0428 22.1876 35.3542C21.9975 35.5113 21.8057 35.6661 21.6124 35.8197C21.4199 35.974 21.2272 36.1283 21.0315 36.2789C20.8362 36.4303 20.6428 36.5834 20.4445 36.731L20.1485 36.9543C20.0498 37.0287 19.9521 37.1044 19.8464 37.1708C19.4256 37.4388 18.9187 37.6096 18.3014 37.6553C17.9911 37.6764 17.6567 37.6702 17.2779 37.6138C17.1832 37.5997 17.0906 37.5878 16.9887 37.5657L16.8392 37.5361L16.6825 37.4984C16.4735 37.448 16.2473 37.3779 15.999 37.2832C15.9359 37.0254 15.8946 36.7927 15.8704 36.5792Z" fill="url(#paint3_linear)"/>
<path opacity="0.7" fill-rule="evenodd" clip-rule="evenodd" d="M52.4217 20.6519L43.2317 28.7206C42.477 29.383 41.3267 29.3121 40.6621 28.5622L40.033 27.8524C39.4072 27.1461 39.4355 26.0899 40.0709 25.4159L49.5218 17.1181C50.2729 16.5748 51.3295 16.6785 51.9554 17.3848L52.5843 18.0944C53.2491 18.8445 53.1762 19.9895 52.4217 20.6519Z" fill="url(#paint4_linear)"/>
<defs>
<linearGradient id="paint0_linear" x1="-2.34793" y1="44.3393" x2="38.9351" y2="20.8981" gradientUnits="userSpaceOnUse">
<stop stop-color="#F85454"/>
<stop offset="1" stop-color="#FFA0A0"/>
</linearGradient>
<linearGradient id="paint1_linear" x1="71.4973" y1="44.3393" x2="30.2143" y2="20.8981" gradientUnits="userSpaceOnUse">
<stop stop-color="#F85454"/>
<stop offset="1" stop-color="#FFA0A0"/>
</linearGradient>
<linearGradient id="paint2_linear" x1="42.9847" y1="12.1589" x2="30.2835" y2="2.49638" gradientUnits="userSpaceOnUse">
<stop stop-color="#FF6969"/>
<stop offset="1" stop-color="#FF8888"/>
</linearGradient>
<linearGradient id="paint3_linear" x1="53.2932" y1="29.904" x2="23.42" y2="6.27857" gradientUnits="userSpaceOnUse">
<stop stop-color="#CA4141"/>
<stop offset="1" stop-color="#FF6969"/>
</linearGradient>
<linearGradient id="paint4_linear" x1="55.2821" y1="26.1496" x2="42.5809" y2="16.4871" gradientUnits="userSpaceOnUse">
<stop stop-color="#FF6969"/>
<stop offset="1" stop-color="#FF8888"/>
</linearGradient>
</defs>
</svg>

<svg width="69" height="49" viewBox="0 0 69 49" fill="none" xmlns="http://www.w3.org/2000/svg"><path fill-rule="evenodd" clip-rule="evenodd" d="M17.08 42.41c.89 1.025 1.512 2.214 1.81 3.453a1.492 1.492 0 01-.78 1.679l.002.004c-3.614 1.83-8.299.654-10.953-2.402-.89-1.026-1.512-2.215-1.81-3.454a1.492 1.492 0 01.78-1.679c3.632-1.878 8.341-.607 10.951 2.398zm17.492-12.43c.002 2.324.005 5.184 0 0zM16.647 1.605c1.957 3.507 1.019 8.143-1.833 10.916-.978.952-2.129 1.641-3.34 2.008a1.5 1.5 0 01-1.797-.807 8.341 8.341 0 01-1.021-3.625c-.211-4.02 2.316-8.125 6.195-9.3a1.5 1.5 0 011.796.808zM14.614 5.33a5.612 5.612 0 00-.175-1.132C12.245 5.573 11.09 8.5 11.746 10.99c1.868-1.17 2.984-3.477 2.868-5.66zm-8.837 6.82a1.51 1.51 0 00-1.915.383c-2.514 3.185-2.23 7.976.256 11.135a8.314 8.314 0 002.944 2.381 1.51 1.51 0 001.915-.383c3.35-4.245 1.687-11.195-3.2-13.517zm.507 4.239c1.38 1.719 1.8 4.224.941 6.245-2.005-1.658-2.759-4.698-1.751-7.07.291.241.563.517.81.825zM2.014 26.1a1.507 1.507 0 00-1.52 1.172c-.896 3.966 1.44 8.203 5.054 9.996a8.35 8.35 0 003.746.89 1.507 1.507 0 001.52-1.172c1.195-5.292-3.321-10.918-8.8-10.886zm2.417 3.597c1.964.985 3.405 3.073 3.518 5.274-2.49-.668-4.456-3.097-4.589-5.684.36.097.72.234 1.071.41zM9.938 42.04a5.582 5.582 0 00-1.155.113c1.261 2.28 4.136 3.624 6.673 3.101-1.075-1.942-3.32-3.202-5.518-3.214z" fill="url(#paint0_linear)" fill-opacity=".4"/><path fill-rule="evenodd" clip-rule="evenodd" d="M52.07 42.41c-.891 1.025-1.513 2.214-1.812 3.453a1.492 1.492 0 00.782 1.679l-.003.004c3.615 1.83 8.3.654 10.954-2.402.89-1.026 1.511-2.215 1.81-3.454a1.492 1.492 0 00-.78-1.679c-3.632-1.878-8.342-.607-10.952 2.398zM34.577 29.98c-.003 2.324-.006 5.184 0 0zM52.502 1.605c-1.957 3.507-1.018 8.143 1.833 10.916.978.952 2.13 1.641 3.341 2.008a1.5 1.5 0 001.796-.807 8.34 8.34 0 001.021-3.625c.212-4.02-2.315-8.125-6.194-9.3a1.5 1.5 0 00-1.797.808zm2.034 3.725c.02-.391.08-.771.175-1.132 2.194 1.375 3.348 4.303 2.692 6.792-1.868-1.17-2.983-3.477-2.867-5.66zm8.837 6.82a1.51 1.51 0 011.915.383c2.514 3.185 2.23 7.976-.256 11.135a8.314 8.314 0 01-2.944 2.381 1.51 1.51 0 01-1.915-.383c-3.35-4.245-1.687-11.195 3.2-13.517zm-.507 4.239c-1.38 1.719-1.8 4.224-.942 6.245 2.006-1.658 2.76-4.698 1.751-7.07-.29.241-.563.517-.81.825zm4.27 9.711a1.507 1.507 0 011.52 1.172c.895 3.966-1.44 8.203-5.054 9.996a8.35 8.35 0 01-3.746.89 1.507 1.507 0 01-1.52-1.172c-1.195-5.292 3.32-10.918 8.8-10.886zm-2.418 3.597c-1.964.985-3.405 3.073-3.517 5.274 2.489-.668 4.455-3.097 4.588-5.684-.36.097-.72.234-1.071.41zM59.212 42.04c.395-.002.783.036 1.155.113-1.262 2.28-4.136 3.624-6.674 3.101 1.076-1.942 3.32-3.202 5.519-3.214z" fill="url(#paint1_linear)" fill-opacity=".4"/><path opacity=".7" fill-rule="evenodd" clip-rule="evenodd" d="M40.25 6.54l-9.452 8.298a1.826 1.826 0 01-2.433-.266l-.63-.71a1.806 1.806 0 01.163-2.557l9.19-8.07a1.826 1.826 0 012.57.16l.63.709a1.806 1.806 0 01-.039 2.436z" fill="url(#paint2_linear)"/><path fill-rule="evenodd" clip-rule="evenodd" d="M15.87 36.58l-.017-.16-.011-.152c-.01-.104-.01-.197-.012-.293a4.666 4.666 0 01.086-1.018c.123-.606.356-1.087.675-1.47.08-.096.166-.184.253-.272l.259-.266c.171-.178.348-.35.523-.524.174-.175.351-.347.529-.518a76.933 76.933 0 011.618-1.519l.547-.497.552-.492a115.787 115.787 0 012.24-1.93l1.137-.948 1.146-.936 1.154-.926 1.163-.917 1.17-.91 1.178-.9c.395-.297.789-.596 1.187-.89.396-.295.793-.591 1.194-.882l.493.558 1.84-1.25-2.777-3.144 9.457-8.328 6.832 7.731-9.458 8.328-2.777-3.144-1.474 1.668.494.558c-.34.36-.683.716-1.026 1.072-.342.358-.688.71-1.033 1.064l-1.042 1.054-1.05 1.046-1.056 1.037-1.065 1.028-1.073 1.018-1.084 1.007a119.715 119.715 0 01-2.199 1.978l-.557.485-.562.481a79.691 79.691 0 01-2.293 1.872c-.195.151-.388.304-.586.452l-.297.223c-.098.075-.196.15-.302.217-.42.268-.927.439-1.545.484-.31.021-.644.015-1.023-.041-.095-.014-.187-.026-.29-.048l-.149-.03-.156-.038a5.61 5.61 0 01-.684-.215 5.623 5.623 0 01-.129-.704z" fill="url(#paint3_linear)"/><path opacity=".7" fill-rule="evenodd" clip-rule="evenodd" d="M52.422 20.652l-9.19 8.069a1.827 1.827 0 01-2.57-.159l-.629-.71a1.805 1.805 0 01.038-2.436l9.45-8.298a1.826 1.826 0 012.434.267l.63.71c.664.75.591 1.895-.163 2.557z" fill="url(#paint4_linear)"/><defs><linearGradient id="paint0_linear" x1="-2.348" y1="44.339" x2="38.935" y2="20.898" gradientUnits="userSpaceOnUse"><stop stop-color="#F85454"/><stop offset="1" stop-color="#FFA0A0"/></linearGradient><linearGradient id="paint1_linear" x1="71.497" y1="44.339" x2="30.214" y2="20.898" gradientUnits="userSpaceOnUse"><stop stop-color="#F85454"/><stop offset="1" stop-color="#FFA0A0"/></linearGradient><linearGradient id="paint2_linear" x1="42.985" y1="12.159" x2="30.284" y2="2.496" gradientUnits="userSpaceOnUse"><stop stop-color="#FF6969"/><stop offset="1" stop-color="#F88"/></linearGradient><linearGradient id="paint3_linear" x1="53.293" y1="29.904" x2="23.42" y2="6.279" gradientUnits="userSpaceOnUse"><stop stop-color="#CA4141"/><stop offset="1" stop-color="#FF6969"/></linearGradient><linearGradient id="paint4_linear" x1="55.282" y1="26.15" x2="42.581" y2="16.487" gradientUnits="userSpaceOnUse"><stop stop-color="#FF6969"/><stop offset="1" stop-color="#F88"/></linearGradient></defs></svg>
